X:0
T:Phrygian (mi) Scales
M:4/4
L:1/8
K:CPhr
"^C"       CDEF GABc|cBAG FEDC||\
K:GPhr
"^G"       GABc defg|gfed cBAG||
K:DPhr
"^D"       DEFG ABcd|dcBA GFED||\
K:APhr
"^A"       ABcd efga|agfe dcBA||
K:EPhr
"^E"       EFGA Bcde|edcB AGFE||
K:BPhr
"^B"       Bcde fgab|bagf edcB||\
K:F#Phr
"^F sharp" FGAB cdef|fedc BAGF||
K:C#Phr
"^C sharp" CDEF GABc|cBAG FEDC||\
K:G#Phr
"^G sharp" GABc defg|gfed cBAG|]

On the pipe chanter this would be the F mode, but no pipe music uses it.


1.7. The Lydian and Locrian Modes
==== ============================

Two other modes named by mediaeval theorists were the LYDIAN and LOCRIAN
modes (the white-note scales beginning on F and B respectively).  The
Locrian mode was never used in practice in the Middle Ages, and has no
relevance at all to Scottish music.  The Lydian mode was used in some
Gregorian chant (perhaps less than the written sources suggest, as some of
it might have become major in performance) and occurs in some Scandinavian
music.  It has a sort of theoretical existence in Scottish music, as it
helps describe, other much more common, modes.  Its interval pattern is
TTT S TTS; in A it's AB^c^de^f^ga.  In sol-fa it's the fa-mode.

